!!!COM: Claude Debussy
!!!CNT: Francais
!!!TXO: Francais
!!!OTL: Les Angelus
!!!LYR: Gre/goire Le Roy
!!!ENC: Jacob Pegg
!!!YOR: Claude Debussy: Songs 1880-1904, Edited by Rita Benton
!!!YOR: New York: Dover publications, inc., 1981
!!!YOR: ISBN 0-486-24131-9
!!!ODT: 1892/
!!NB: Vocal melody and text only encoded.
!!NB: First instance of melodic material only encoded.
**kern	**silbe
*clef G2	*
*k[f#c#g#d#]	*
*M3/4	*
*MM[moderato]	*
!! created: 7/1/03 14:49
!! last edited: 7/10/03 14:49
!! time (min): Input: notes 13, words 6;  Check: notes 4, words 4.
!! total edit time: about 27 min.
=4	=4
4r	.
8r	.
{8b	{Clo-
8b	-ches
8b	chre/-
=5	=5
4a	-tien-
8a	-nes
8a	pour
8a	les
8a	ma-
=6	=6
2gn	-ti-
4d#}	-nes,}
=7	=7
4r	.
{4d#	{Son-
8f#	-nant
8a	au
=8	=8
4cc#	coeur
8a	d'es-
8a	-pe/-
8b	-rer
8cc#	en-
=9	=9
[2.dd#	-co-
=10	=10
4dd#]}	-re!}
4r	.
4r	.
=11	=11
4r	.
{4ff#	{An-
4dd#	-ge-
=12	=12
8cc#	-lus
8a	an-
8a	-ge-
8a	-lis-
8b	-e/s
8cc#	d'au-
=13	=13
2b	-ro-
4gn}	-re!}
=14	=14
4r	.
{2dd#	{Las!
=15	=15
8cc#	Ou\
8b	sont
8a#	vos
8g#	pri-
8f#	-e\-
[8e	-res
=16	=16
8e]	|
8f#	ca^-
4d#	-li-
4c#}	-nes?}
=17	=17
*M2/4	*
4r	.
4r	.
=18	=18
2r	.
=19	=19
{8cc#	{Vous
8cc#	e/-
8cc#	-tiez
8cc#	de
=20	=20
8b	si
8b	dou-
8b	-ces
8b	fo-
=21	=21
(2a#	-li-
=22	=22
4g#)}	-es!}
4r	.
=23	=23
{4e	{Et
8e	chan-
8e	-te-
=24	=24
4f#	-rel-
8e	-les
8f#	d'a-
=25	=25
8g#	-mours
8g#	pro-
[4cc#	-chai-
=26	=26
4cc#]	|
4b}	-nes!}
=27	=27
4r	.
{8ee	{Au-
8ee	-jour-
=28	=28
4cc#	-d'hui
8ee	sou-
8ee	-ve-
=29	=29
4ff#	-raine
8ee	est
8ff#	ma
=30	=30
(4ff#	pei-
4cc#)}	-ne,}
=31	=31
{8cc#	{Et
8b	tou-
8a	-tes
8gn	ma-
=32	=32
8a	-ti-
8gn	-nes
8f#	a-
8e	-bo-
=33	=33
*M3/4	*
[2d#	-li-
8d#]}	-es.}
8r	.
=34	=34
4r	.
2r	.
=35	=35
2r	.
4r	.
=36	=36
8r	.
{8b	{Je
8b	ne
8b	vis
8b	plus
8b	que
=37	=37
4a	d'ombre
4a	et
4a	de
=38	=38
2gn}	soir;}
4r	.
=39	=39
4r	.
4r	.
{4d#	{Les
=40	=40
4d#	las
4d#	an-
4d#	-ge-
=41	=41
4.d#	-lus
8d#	pleu-
8d#	-rent
8d#	la
=42	=42
4f#}	mort,}
4r	.
{4a#	{Et
=43	=43
2cc#}	la\,}
4r	.
=44	=44
{2ff#	{dans
4dd#	mon
=45	=45
4cc#	coeur
4b	re/-
4cc#	-si-
=46	=46
2g#	-gne/,
[4f#	dort
=47	=47
4.f#]}	|}
{8e	{La
8e	seu-
8f#	-le
=48	=48
4f#	veu-
4e	-ve
4f#	de
=49	=49
2.g#	tout
=50	=50
2.f#	es-
=51	=51
2.c#}	-poir.}
*-	*-
